X: 6300
T: Carraigín Ruadh
R: reel
M: 4/4
K: Dmajor
df ~f2 eBdB|AF ~F2 EA D2|dBAF DEFA|Bded BAFA|
(3.g.f.A df {f}e2 dB|AF ~F2 EA D2|{G}(3.E.F.E FE DEFA|BdAG FA D2:|
fa ~a2 afde|faaf bfaf|gfed Bdag|f/g/a edBA F2|
[1 fa ~a2 afde|faaf bfaf|gfef gbag|f/g/a eg fdd2:|
[2 gb ~b3 afde|(3.f.g.f fd eB ~B2|Bded BAFA|dBAG FA D2||

